X: 20753
Q: "Waltz."
M: 3/4
L: 1/8
K: G
d3dba | g2B2(ed) | dFFAed | d2G2(Bc) |\
d3dba | g2B2(ed) | d^ced=cA | G4 |]
(ed) |\
dFFAed | dGGBed | dFFAed | (d2B)BBc |\
d3dba | g2B2dd | d^ced=cA | G3 |]


